core/assets/icons/main_screen.svg

<svg width="24" height="24" viewBox="0 0 24 24" xmlns="http://www.w3.org/2000/svg"><g id="main-screen"><path id="Vector" d="M22 20C22 20.2652 21.8946 20.5196 21.7071 20.7071C21.5196 20.8946 21.2652 21 21 21H3C2.73478 21 2.48043 20.8946 2.29289 20.7071C2.10536 20.5196 2 20.2652 2 20V4C2 3.73478 2.10536 3.48043 2.29289 3.29289C2.48043 3.10536 2.73478 3 3 3H21C21.2652 3 21.5196 3.10536 21.7071 3.29289C21.8946 3.48043 22 3.73478 22 4V20ZM11 15H4V19H11V15ZM20 11H13V19H20V11ZM11 5H4V13H11V5ZM20 5H13V9H20V5Z"/></g></svg>

<svg xmlns="http://www.w3.org/2000/svg" width="24" height="24" fill="none"><path fill="#191C22" d="M22 20a1 1 0 0 1-1 1H3a1 1 0 0 1-1-1V4a1 1 0 0 1 1-1h18a1 1 0 0 1 1 1v16Zm-11-5H4v4h7v-4Zm9-4h-7v8h7v-8Zm-9-6H4v8h7V5Zm9 0h-7v4h7V5Z"/></svg>
